img/contact-icon.svg

<svg width="100" height="100" viewBox="0 0 100 100" fill="none" xmlns="http://www.w3.org/2000/svg">
<g clip-path="url(#clip0_163_4292)">
<g clip-path="url(#clip1_163_4292)">
<path d="M39.2397 55.6344C39.4389 55.589 39.5936 55.4562 39.7046 55.2578C39.8819 55.014 39.9702 54.6594 39.9702 54.2836V50.2304C39.9702 48.1484 41.6975 46.4648 43.7577 46.4648H49.8686C51.928 46.4648 53.6561 48.1484 53.6561 50.2304V51.4484H63.8632V50.2304C63.8632 48.1484 65.5905 46.4648 67.6717 46.4648H73.7616C74.8022 46.4648 75.7546 46.8859 76.4405 47.5508C76.7926 47.9025 77.0718 48.3202 77.262 48.7801C77.4522 49.2399 77.5498 49.7328 77.5491 50.2304V54.2836C77.5491 54.6594 77.6374 55.0148 77.8147 55.2578C77.8646 55.3516 77.9338 55.4337 78.0179 55.4986C78.1019 55.5635 78.1989 55.6098 78.3022 55.6344C82.4428 56.875 95.2413 59.8203 97.7436 62.5008C99.2717 64.1172 100.002 66.332 100.002 69.4336V93.7328C100.002 97.1664 97.1694 100 93.7358 100H23.8053C20.3506 100 17.5389 97.1656 17.5389 93.7328V69.4336C17.5389 66.332 18.2475 64.1172 19.7749 62.5008C20.5952 61.6375 22.5217 60.7289 24.8905 59.8648C29.7389 58.0929 36.4483 56.4765 39.2397 55.6344ZM96.8788 93.5328H75.7983C74.9358 93.5328 74.2264 92.8234 74.2264 91.9594C74.2264 91.0953 74.935 90.4101 75.7983 90.4101H96.8788V69.4336C96.8788 67.1734 96.4366 65.6461 95.4842 64.6492C93.8014 62.8547 80.4038 59.532 77.3936 58.6461C76.4397 58.3586 75.71 57.7383 75.2006 56.9633C74.6913 56.1883 74.4257 55.2351 74.4257 54.2828V50.2297C74.4271 50.1479 74.4121 50.0666 74.3817 49.9907C74.3512 49.9147 74.3059 49.8456 74.2483 49.7875C74.1854 49.7221 74.1096 49.6705 74.0257 49.6361C73.9417 49.6016 73.8515 49.5851 73.7608 49.5875H67.671C67.2952 49.5875 66.985 49.8531 66.985 50.2297V51.4476C66.986 52.2769 66.6598 53.0731 66.0772 53.6633C65.788 53.9572 65.4433 54.1907 65.0631 54.3503C64.6829 54.5099 64.2747 54.5924 63.8624 54.5929H53.6553C53.2429 54.5923 52.8347 54.5097 52.4543 54.3502C52.074 54.1906 51.7292 53.9571 51.4397 53.6633C50.8579 53.0726 50.5321 52.2767 50.5327 51.4476V50.2297C50.5327 49.8531 50.2233 49.5875 49.8678 49.5875H43.7569C43.4022 49.5875 43.0921 49.8531 43.0921 50.2297V54.2828C43.0921 55.2351 42.8256 56.1875 42.3171 56.9633C41.8077 57.7383 41.0772 58.3586 40.1241 58.6461C38.3311 59.1781 23.7155 62.8547 22.0335 64.6492C21.1038 65.6461 20.6608 67.1734 20.6608 69.4336V90.4101H41.0991C41.9624 90.4101 42.671 91.0961 42.671 91.9594C42.671 92.8226 41.9631 93.5328 41.0991 93.5328H20.6608V93.7328C20.6639 94.5656 20.9961 95.3634 21.585 95.9523C22.1739 96.5412 22.9717 96.8735 23.8046 96.8765H93.7342C94.567 96.8733 95.3647 96.541 95.9536 95.9521C96.5424 95.3633 96.8747 94.5656 96.878 93.7328L96.8788 93.5328ZM32.8397 39.5976L33.1491 41.3703C33.3702 42.6765 33.5694 43.9172 33.2819 45.2242C32.9499 46.6414 32.1085 47.9258 30.271 48.9453L22.0999 53.5304C20.1514 54.6156 18.2913 54.6594 16.6967 54.1508C14.5936 53.464 12.9991 51.8023 12.2241 50.4515C11.5366 49.2117 10.8506 47.9711 10.1639 46.7531C5.64674 38.6679 12.2678 28.3023 23.1624 19.3539C31.4663 12.575 41.8514 6.74998 51.9491 3.22732C65.2796 -1.40158 77.5702 -1.64533 82.0866 6.43904L84.1678 10.1164C84.9217 11.489 85.5186 13.7265 84.9882 15.875C84.5882 17.4922 83.5928 19.0648 81.6444 20.15L73.4733 24.7351C71.635 25.7765 70.1077 25.8422 68.735 25.3555C67.4733 24.9344 66.5202 24.1148 65.5014 23.2289L64.1507 22.0328C62.7772 20.8148 61.3163 20.039 59.8757 19.7734C58.5702 19.5523 57.2858 19.7289 56.0897 20.3937L35.6522 31.8453C34.4561 32.5094 33.6147 33.5289 33.1499 34.7695C32.5733 36.275 32.5514 38.0031 32.8397 39.5976ZM29.8944 40.9273L15.2358 49.3656C15.7671 50.0742 16.6085 50.8492 17.6491 51.1812C18.4905 51.4469 19.4874 51.425 20.5725 50.8054L28.7436 46.2422C29.6952 45.689 30.1163 45.1351 30.2491 44.5586C30.4038 43.85 30.2491 42.8976 30.0717 41.9008L29.8944 40.9273ZM13.6858 46.6414L29.5405 37.5383C29.5405 36.1429 29.7842 34.8367 30.2491 33.6625C30.9803 31.7351 32.2858 30.1633 34.1241 29.1219L54.5624 17.6703C56.4014 16.6297 58.4163 16.3414 60.453 16.7179C61.6936 16.9398 62.9327 17.4265 64.1069 18.157L79.8733 8.83201L79.3858 7.94607C75.7546 1.50076 64.9046 2.01014 52.9913 6.1742C43.2257 9.58514 33.1507 15.2328 25.1561 21.789C15.3686 29.7851 9.2569 38.7562 12.8881 45.2242L13.6858 46.6414ZM66.7858 20.1945L67.5827 20.8812C68.3358 21.5461 69.0452 22.1656 69.7311 22.4101C70.3061 22.6094 70.9928 22.5429 71.9671 22.0109L80.1163 17.4258C81.2014 16.8273 81.7553 15.9859 81.9546 15.1445C82.2421 13.9484 81.9991 12.6195 81.4007 11.5562L66.7858 20.1945Z" fill="#3391AC"/>
<path d="M58.7692 58.3812C61.081 58.3797 63.3705 58.8348 65.506 59.7203C67.6416 60.6058 69.5813 61.9043 71.2137 63.5414C72.8528 65.1776 74.1524 67.1216 75.0378 69.2617C75.9232 71.4018 76.377 73.6957 76.3731 76.0117C76.3731 80.8852 74.4035 85.2711 71.2137 88.4602C69.5814 90.0975 67.6418 91.3963 65.5062 92.282C63.3706 93.1676 61.0811 93.6227 58.7692 93.6211C56.4535 93.6248 54.16 93.1708 52.0204 92.2851C49.8808 91.3994 47.9374 90.0995 46.302 88.4602C43.1137 85.2711 41.1426 80.8859 41.1426 76.0117C41.1387 73.6957 41.5925 71.4018 42.4779 69.2617C43.3633 67.1216 44.6629 65.1776 46.302 63.5414C47.9375 61.9022 49.8809 60.6024 52.0205 59.7169C54.1601 58.8313 56.4536 58.3774 58.7692 58.3812ZM58.7692 69.8992C62.1356 69.8992 64.859 72.6461 64.859 76.0117C64.859 79.3789 62.1356 82.1258 58.7692 82.1258C55.4028 82.1258 52.6582 79.3781 52.6582 76.0117C52.6574 72.6453 55.4028 69.8992 58.7692 69.8992ZM58.7692 73.0227C58.3761 73.0209 57.9866 73.097 57.6231 73.2466C57.2596 73.3962 56.9294 73.6163 56.6514 73.8942C56.3734 74.1721 56.1532 74.5023 56.0036 74.8657C55.8539 75.2292 55.7777 75.6187 55.7793 76.0117C55.7793 77.6734 57.1082 78.9805 58.7692 78.9805C59.5564 78.9803 60.3113 78.6674 60.8679 78.1107C61.4245 77.5539 61.7371 76.7989 61.7371 76.0117C61.7364 74.3727 60.4074 73.0227 58.7692 73.0227ZM68.9989 65.757C66.3856 63.143 62.7543 61.5047 58.7684 61.5047C56.8637 61.5042 54.9776 61.8796 53.2181 62.6093C51.4587 63.339 49.8606 64.4087 48.5153 65.757C45.8809 68.3922 44.2645 72.0023 44.2645 76.0117C44.2645 80.0211 45.8809 83.6313 48.5153 86.268C49.8618 87.6132 51.4606 88.6794 53.2201 89.4054C54.9796 90.1313 56.865 90.5028 58.7684 90.4984C62.7543 90.4984 66.3856 88.8813 68.9989 86.268C71.634 83.6313 73.2504 80.0211 73.2504 76.0117C73.2504 72.0023 71.634 68.3922 68.9989 65.757Z" fill="#3391AC"/>
<path fill-rule="evenodd" clip-rule="evenodd" d="M48.6721 81.8375C48.5672 81.6608 48.4989 81.4649 48.4711 81.2614C48.4433 81.0578 48.4566 80.8507 48.5103 80.6524C48.564 80.4541 48.6569 80.2686 48.7836 80.1069C48.9103 79.9452 49.0682 79.8105 49.2479 79.7109C49.9792 79.268 50.9307 79.5328 51.3729 80.2859C51.5766 80.6448 51.6304 81.0695 51.5228 81.4678C51.4151 81.8661 51.1546 82.2059 50.7979 82.4133C50.0448 82.8336 49.0932 82.5906 48.6721 81.8375ZM66.2542 67.0851C66.919 67.6391 67.0073 68.6141 66.4534 69.2789C66.1856 69.598 65.8024 69.7981 65.3875 69.8355C64.9726 69.8728 64.5598 69.7443 64.2393 69.4781C63.9276 69.2044 63.7348 68.8201 63.7017 68.4066C63.6686 67.9932 63.7978 67.5831 64.062 67.2633C64.6159 66.5984 65.5893 66.532 66.2542 67.0851ZM70.2401 73.975C70.2765 74.1771 70.2727 74.3844 70.2289 74.5851C70.1852 74.7857 70.1023 74.9758 69.985 75.1444C69.8678 75.313 69.7185 75.4568 69.5456 75.5677C69.3728 75.6786 69.1797 75.7544 68.9776 75.7906C68.1354 75.9453 67.3167 75.3695 67.162 74.5281C67.0073 73.6867 67.5823 72.8672 68.4245 72.7125C68.6266 72.6759 68.834 72.6796 69.0347 72.7232C69.2354 72.7669 69.4256 72.8498 69.5942 72.967C69.7629 73.0843 69.9068 73.2337 70.0176 73.4067C70.1284 73.5796 70.204 73.7728 70.2401 73.975ZM47.2768 73.975C47.4323 73.1336 48.251 72.5578 49.0932 72.7125C49.9346 72.8672 50.5096 73.6867 50.355 74.5281C50.3188 74.7304 50.2431 74.9235 50.1322 75.0965C50.0213 75.2695 49.8773 75.4189 49.7086 75.5361C49.5399 75.6534 49.3497 75.7362 49.1489 75.7799C48.9481 75.8236 48.7407 75.8272 48.5385 75.7906C48.3364 75.7544 48.1434 75.6786 47.9706 75.5677C47.7978 75.4568 47.6485 75.3129 47.5314 75.1443C47.4142 74.9757 47.3314 74.7856 47.2877 74.585C47.244 74.3843 47.2403 74.1771 47.2768 73.975ZM51.2628 67.0851C51.9268 66.532 52.9237 66.5984 53.4776 67.2633C54.0307 67.9273 53.9424 68.925 53.2776 69.4781C53.121 69.6099 52.9398 69.7093 52.7446 69.7707C52.5493 69.832 52.3438 69.8541 52.14 69.8356C51.9361 69.817 51.738 69.7583 51.557 69.6628C51.376 69.5672 51.2157 69.4367 51.0854 69.2789C50.5323 68.6141 50.5987 67.6391 51.2628 67.0851ZM58.7698 64.3391C59.6323 64.3391 60.3198 65.0476 60.3198 65.9117C60.3198 66.7758 59.6323 67.4844 58.7698 67.4844C57.9065 67.4844 57.1971 66.7758 57.1971 65.9117C57.1971 65.0476 57.9057 64.3391 58.7698 64.3391ZM68.8667 81.8375C68.6558 82.1961 68.3125 82.4574 67.9107 82.5651C67.509 82.6728 67.0809 82.6183 66.719 82.4133C66.3622 82.206 66.1015 81.8663 65.9937 81.468C65.8859 81.0697 65.9396 80.6449 66.1432 80.2859C66.5862 79.5328 67.5385 79.2672 68.2909 79.7109C69.0229 80.1312 69.2878 81.0844 68.8667 81.8375ZM62.7549 86.9758C62.3613 87.1137 61.9293 87.0911 61.5522 86.9129C61.1751 86.7346 60.8834 86.4151 60.7401 86.0234C60.4526 85.2258 60.8737 84.3172 61.6706 84.0297C62.4893 83.7422 63.3971 84.1625 63.6846 84.9601C63.8221 85.3511 63.8019 85.7801 63.6284 86.1564C63.4548 86.5327 63.1415 86.8266 62.7549 86.9758ZM54.7831 86.9758C54.3915 86.8323 54.0722 86.5405 53.8941 86.1635C53.716 85.7864 53.6936 85.3544 53.8315 84.9609C53.9805 84.5744 54.2743 84.2611 54.6504 84.0874C55.0265 83.9137 55.4555 83.8933 55.8464 84.0305C56.644 84.318 57.0643 85.2266 56.776 86.0242C56.6377 86.4145 56.3502 86.734 55.9765 86.9124C55.6028 87.0908 55.1736 87.1136 54.7831 86.9758Z" fill="#3391AC"/>
<path d="M19.0883 85.1156C19.9508 85.1156 20.6609 85.8023 20.6609 86.6656C20.6609 87.5289 19.9516 88.2383 19.0883 88.2383H7.81641C6.79071 88.2386 5.77517 88.0351 4.82874 87.6397C3.8823 87.2444 3.02382 86.665 2.30312 85.9351C0.885937 84.5172 0 82.5687 0 80.4203V58.2039C0 57.4953 0.0664062 56.5211 0.288281 55.4562C0.532031 54.3492 0.996094 53.1758 1.81562 52.2453L9.61016 43.2969C9.74499 43.1435 9.90885 43.0183 10.0923 42.9285C10.2757 42.8388 10.4751 42.7862 10.679 42.7738C10.8828 42.7615 11.0871 42.7896 11.2801 42.8566C11.473 42.9236 11.6508 43.0281 11.8031 43.164C12.468 43.7172 12.5344 44.714 11.9578 45.357L4.16328 54.3055C3.74219 54.7703 3.47656 55.457 3.32187 56.1445C3.16719 56.8758 3.12266 57.6508 3.12266 58.2047V80.4211C3.12473 81.6595 3.61845 82.8465 4.49531 83.7211C5.35859 84.5851 6.53203 85.1172 7.81641 85.1172H19.0883V85.1156ZM82.7289 23.65C82.9359 23.293 83.2754 23.0323 83.6737 22.9244C84.072 22.8166 84.4967 22.8704 84.8555 23.0742C85.0351 23.1739 85.1929 23.3086 85.3195 23.4703C85.4462 23.6321 85.539 23.8176 85.5926 24.0159C85.6463 24.2142 85.6595 24.4212 85.6317 24.6248C85.6038 24.8283 85.5354 25.0242 85.4305 25.2008C84.8508 26.1962 84.066 27.0569 83.1281 27.7258C82.1682 28.3709 81.0805 28.8015 79.9391 28.9883C79.0977 29.1211 78.3008 28.5234 78.168 27.6812C78.1038 27.276 78.2028 26.8619 78.4435 26.5297C78.6841 26.1974 79.0466 25.974 79.4516 25.9086C80.1345 25.8021 80.7852 25.5448 81.3563 25.1555C81.9094 24.757 82.3969 24.2476 82.7289 23.65ZM96.2133 26.6625C96.4578 25.843 97.343 25.3773 98.1625 25.6211C98.982 25.8867 99.4469 26.7508 99.2031 27.5703C97.8708 31.9181 95.1968 35.7327 91.5641 38.468C87.9339 41.1938 83.5255 42.6842 78.9859 42.7203C78.1234 42.7422 77.4367 42.0336 77.4141 41.1922C77.4141 40.3281 78.1 39.6195 78.9633 39.6195C82.8349 39.5807 86.5918 38.2996 89.6805 35.9648C92.7586 33.6617 95.0844 30.4273 96.2133 26.6625ZM89.8148 25.3109C89.9568 24.9241 90.2461 24.6091 90.6195 24.4348C90.9929 24.2604 91.4201 24.2409 91.8078 24.3805C92.1945 24.5226 92.5093 24.8119 92.6833 25.1854C92.8574 25.5588 92.8766 25.9859 92.7367 26.3734C91.7414 29.1867 89.9031 31.6008 87.5555 33.3289C85.1814 35.085 82.3349 36.0882 79.3844 36.2086C79.1806 36.2184 78.9769 36.1878 78.7851 36.1183C78.5932 36.0489 78.4171 35.9421 78.2668 35.8041C78.1165 35.6661 77.9951 35.4997 77.9096 35.3145C77.8242 35.1292 77.7763 34.9289 77.7687 34.725C77.7581 34.5199 77.7881 34.3148 77.8569 34.1213C77.9257 33.9278 78.0321 33.7499 78.1699 33.5976C78.3076 33.4453 78.4741 33.3217 78.6597 33.2339C78.8453 33.1461 79.0465 33.0958 79.2516 33.0859C81.6656 32.9969 83.8789 32.1555 85.6961 30.8266C87.5555 29.4531 89.018 27.5484 89.8148 25.3109Z" fill="#3391AC"/>
</g>
</g>
<defs>
<clipPath id="clip0_163_4292">
<rect width="100" height="100" fill="white"/>
</clipPath>
<clipPath id="clip1_163_4292">
<rect width="100" height="100" fill="white"/>
</clipPath>
</defs>
</svg>

<svg width="100" height="100" fill="none" xmlns="http://www.w3.org/2000/svg"><g clip-path="url(#clip0_163_4292)"><g clip-path="url(#clip1_163_4292)" fill="#3391AC"><path d="M39.24 55.634c.199-.045.354-.178.465-.376.177-.244.265-.599.265-.974V50.23c0-2.082 1.727-3.765 3.788-3.765h6.11c2.06 0 3.788 1.683 3.788 3.765v1.218h10.207V50.23c0-2.082 1.728-3.765 3.809-3.765h6.09c1.04 0 1.993.42 2.678 1.086a3.779 3.779 0 011.11 2.68v4.053c0 .375.087.73.265.974a.747.747 0 00.487.376c4.14 1.241 16.94 4.186 19.442 6.867 1.528 1.616 2.258 3.831 2.258 6.933v24.299c0 3.433-2.833 6.267-6.266 6.267h-69.93c-3.455 0-6.267-2.834-6.267-6.267v-24.3c0-3.101.708-5.316 2.236-6.932.82-.863 2.747-1.772 5.116-2.636 4.848-1.772 11.557-3.389 14.349-4.23zm57.639 37.899h-21.08a1.58 1.58 0 01-1.573-1.574c0-.864.709-1.549 1.572-1.549h21.08V69.434c0-2.26-.441-3.788-1.394-4.785-1.683-1.794-15.08-5.117-18.09-6.003-.954-.287-1.684-.908-2.193-1.683-.51-.775-.775-1.728-.775-2.68V50.23a.615.615 0 00-.178-.442.652.652 0 00-.487-.2h-6.09c-.376 0-.686.265-.686.642v1.218a3.149 3.149 0 01-1.922 2.902c-.38.16-.788.242-1.2.243H53.654a3.118 3.118 0 01-2.215-.93 3.154 3.154 0 01-.907-2.215V50.23c0-.377-.31-.642-.665-.642h-6.111c-.355 0-.665.265-.665.642v4.053c0 .952-.266 1.904-.775 2.68-.51.775-1.24 1.396-2.193 1.683-1.793.532-16.409 4.209-18.09 6.003-.93.997-1.373 2.524-1.373 4.785V90.41h20.438a1.56 1.56 0 011.572 1.55c0 .863-.708 1.573-1.572 1.573H20.661v.2a3.155 3.155 0 003.144 3.143h69.93a3.156 3.156 0 003.143-3.143v-.2zm-64.04-53.935l.31 1.772c.221 1.306.42 2.547.133 3.854-.332 1.417-1.173 2.702-3.011 3.721L22.1 53.53c-1.949 1.086-3.809 1.13-5.403.62-2.103-.686-3.698-2.348-4.473-3.698-.687-1.24-1.373-2.48-2.06-3.699-4.517-8.085 2.104-18.45 12.998-27.4C31.466 12.576 41.852 6.75 51.95 3.228c13.33-4.63 25.62-4.873 30.137 3.212l2.08 3.677c.755 1.373 1.352 3.61.821 5.759-.4 1.617-1.395 3.19-3.344 4.275l-8.17 4.585c-1.839 1.041-3.366 1.107-4.739.62-1.262-.42-2.215-1.24-3.234-2.126l-1.35-1.196c-1.374-1.218-2.835-1.994-4.275-2.26-1.306-.22-2.59-.044-3.786.62L35.652 31.846c-1.196.664-2.037 1.684-2.502 2.925-.577 1.505-.599 3.233-.31 4.828zm-2.945 1.33l-14.658 8.438c.531.708 1.372 1.483 2.413 1.815.841.266 1.838.244 2.924-.376l8.17-4.563c.952-.553 1.373-1.107 1.506-1.683.155-.709 0-1.661-.177-2.658l-.178-.974zM13.686 46.64l15.855-9.103c0-1.395.243-2.701.708-3.875.731-1.928 2.037-3.5 3.875-4.541L54.562 17.67c1.84-1.04 3.854-1.329 5.891-.952 1.24.222 2.48.709 3.654 1.439l15.766-9.325-.487-.886C75.755 1.501 64.905 2.01 52.99 6.174c-9.765 3.411-19.84 9.059-27.835 15.615-9.787 7.996-15.9 16.967-12.268 23.435l.798 1.417zm53.1-26.446l.797.686c.753.665 1.462 1.285 2.148 1.53.575.198 1.262.132 2.236-.4l8.15-4.585c1.084-.599 1.638-1.44 1.838-2.281.287-1.197.044-2.525-.554-3.589l-14.615 8.639z"/><path d="M58.77 58.381a17.559 17.559 0 0112.444 5.16 17.577 17.577 0 015.16 12.47c0 4.874-1.97 9.26-5.16 12.45a17.556 17.556 0 01-12.445 5.16 17.571 17.571 0 01-12.467-5.16 17.525 17.525 0 01-5.16-12.45 17.58 17.58 0 015.16-12.47 17.569 17.569 0 0112.467-5.16zm0 11.518c3.366 0 6.089 2.747 6.089 6.113 0 3.367-2.723 6.114-6.09 6.114-3.366 0-6.11-2.748-6.11-6.114-.002-3.367 2.744-6.113 6.11-6.113zm0 3.124a2.976 2.976 0 00-2.99 2.989c0 1.661 1.328 2.969 2.99 2.969a2.969 2.969 0 002.967-2.97c0-1.638-1.33-2.988-2.968-2.988zm10.229-7.266a14.461 14.461 0 00-20.484 0 14.429 14.429 0 00-4.25 10.255c0 4.01 1.616 7.62 4.25 10.256a14.461 14.461 0 0010.253 4.23c3.986 0 7.618-1.617 10.23-4.23a14.433 14.433 0 004.252-10.256c0-4.01-1.616-7.62-4.251-10.255z"/><path fill-rule="evenodd" clip-rule="evenodd" d="M48.672 81.838a1.536 1.536 0 01.576-2.127c.731-.443 1.683-.178 2.125.575a1.567 1.567 0 01-.575 2.127c-.753.42-1.705.178-2.126-.575zm17.582-14.753c.665.554.753 1.53.2 2.194a1.576 1.576 0 01-2.215.2 1.595 1.595 0 01-.177-2.216c.554-.665 1.527-.731 2.192-.178zm3.986 6.89a1.562 1.562 0 01-1.262 1.816 1.574 1.574 0 01-1.816-1.263 1.574 1.574 0 011.262-1.816 1.563 1.563 0 011.816 1.263zm-22.963 0a1.575 1.575 0 011.816-1.262 1.574 1.574 0 011.262 1.815 1.563 1.563 0 11-3.078-.553zm3.986-6.89c.664-.553 1.66-.487 2.215.178a1.577 1.577 0 01-.733 2.508 1.55 1.55 0 01-1.66-.492c-.553-.665-.486-1.64.178-2.194zm7.507-2.746c.862 0 1.55.709 1.55 1.573a1.56 1.56 0 01-1.55 1.572 1.579 1.579 0 01-1.573-1.572 1.58 1.58 0 011.573-1.573zm10.097 17.499a1.585 1.585 0 01-2.148.575 1.567 1.567 0 01-.576-2.127c.443-.753 1.395-1.019 2.148-.575.732.42.997 1.373.576 2.127zm-6.112 5.138a1.587 1.587 0 01-2.015-.953 1.571 1.571 0 01.93-1.993c.82-.288 1.727.132 2.015.93a1.594 1.594 0 01-.93 2.016zm-7.972 0a1.587 1.587 0 01-.952-2.015 1.594 1.594 0 012.015-.93 1.57 1.57 0 01.13 2.881 1.563 1.563 0 01-1.193.064z"/><path d="M19.088 85.116a1.56 1.56 0 011.573 1.55 1.58 1.58 0 01-1.573 1.572H7.816a7.744 7.744 0 01-5.513-2.303A7.788 7.788 0 010 80.42V58.204c0-.709.066-1.683.288-2.748.244-1.107.708-2.28 1.528-3.21l7.794-8.95a1.548 1.548 0 012.193-.132c.665.553.731 1.55.155 2.193l-7.795 8.949c-.42.464-.686 1.151-.841 1.839-.155.73-.2 1.506-.2 2.06V80.42a4.672 4.672 0 001.373 3.3 4.687 4.687 0 003.321 1.396h11.272v-.001zm63.64-61.466a1.565 1.565 0 012.128-.576 1.536 1.536 0 01.575 2.127 8.121 8.121 0 01-2.303 2.525 8.047 8.047 0 01-3.189 1.262c-.841.133-1.638-.465-1.771-1.307a1.55 1.55 0 011.284-1.772 4.655 4.655 0 001.904-.753c.553-.399 1.04-.908 1.373-1.506zm13.485 3.013c.245-.82 1.13-1.286 1.95-1.042a1.582 1.582 0 011.04 1.95 21.542 21.542 0 01-7.639 10.897 21.23 21.23 0 01-12.578 4.252c-.863.022-1.55-.686-1.572-1.528 0-.864.686-1.572 1.55-1.572a18.073 18.073 0 0010.716-3.655c3.079-2.303 5.404-5.538 6.533-9.303zm-6.398-1.352a1.56 1.56 0 011.993-.93 1.559 1.559 0 01.929 1.992 14.795 14.795 0 01-5.181 6.956 14.752 14.752 0 01-8.172 2.88 1.542 1.542 0 01-1.615-1.484 1.561 1.561 0 011.483-1.64 11.62 11.62 0 006.444-2.258 11.8 11.8 0 004.119-5.516z"/></g></g><defs><clipPath id="clip0_163_4292"><path fill="#fff" d="M0 0h100v100H0z"/></clipPath><clipPath id="clip1_163_4292"><path fill="#fff" d="M0 0h100v100H0z"/></clipPath></defs></svg>
